**kern	**silbe	**kern	**silbe
*ICvox	*	*ICvox	*
*E:	*	*E:	*
*M4/4	*	*M4/4	*
*clefF4	*	*clefG2	*
r;	.	r;	.
=1	=1	=1	=1
1r	.	1r	.
=2	=2	=2	=2
1r	.	1r	.
=3	=3	=3	=3
8G#	I	1r	.
4B	came	.	.
[8B	in	.	.
8B]	_	.	.
4B	to	.	.
8A	town	.	.
=4	=4	=4	=4
2B	_	1r	.
4r	.	.	.
8A	with	.	.
8G#	a	.	.
=5	=5	=5	=5
8F#	knap-	1r	.
4A	-sack	.	.
[8A	on	.	.
8A]	_	.	.
4A	my	.	.
[8A	shoul	.	.
=6	=6	=6	=6
8A]	_	1r	.
4G#	der	.	.
8r	.	.	.
8r	.	.	.
4E	and	.	.
8D#	a	.	.
=7	=7	=7	=7
8E	poc-	1r	.
4G#	-ket	.	.
[8G#	full	.	.
8G#]	_	.	.
4G#	of	.	.
8F#q	_	.	.
[8G#	sto	.	.
=8	=8	=8	=8
8G#]	_	1r	.
4.F#	ries	.	.
4r	.	.	.
8r	.	.	.
8C#	that	.	.
=9	=9	=9	=9
8F#	I	1r	.
4F#	just	.	.
8F#	had	.	.
8r	.	.	.
8E	to	.	.
8E	tell	.	.
[8F#	_	.	.
=10	=10	=10	=10
4F#]	_	1r	.
4r	.	.	.
4r	.	.	.
8r	.	.	.
8~BB	You	.	.
=11	=11	=11	=11
8G#	know	1r	.
4B	I've	.	.
[8B	knocked	.	.
8B]	_	.	.
[8G#	a	.	.
16G#]	_	.	.
[8.B	round	.	.
=12	=12	=12	=12
8B]	_	1r	.
8c#	a	.	.
8B	bit	.	.
8r	.	.	.
4r	.	.	.
8A	and	.	.
8G#	I've	.	.
=13	=13	=13	=13
8F#	had	1r	.
8A	my	.	.
4A	share	.	.
4r	.	.	.
8r	.	.	.
8~E	of	.	.
=14	=14	=14	=14
4A	small	1r	.
4A	town	.	.
8G#	glo-	.	.
8F#	-ries,	.	.
[4G#	_	.	.
=15	=15	=15	=15
8G#]	_	1r	.
4E	it's	.	.
[8E	time	.	.
8E]	_	.	.
8F#	to	.	.
8~G#	hit	.	.
8F#	the	.	.
=16	=16	=16	=16
8G#	ci-	1r	.
8F#	-ty	.	.
8r	.	.	.
[8E	and	.	.
8E]	_	.	.
4C#	that	.	.
8Eq	_	.	.
[8F#	cra	.	.
=17	=17	=17	=17
8F#]	_	1r	.
4F#	zy	.	.
8Eq	_	.	.
[8F#	ca	.	.
8F#]	_	.	.
4F#	rou	.	.
8Eq	_	.	.
[8F#	sel	.	.
=18	=18	=18	=18
4.F#]	_	1r	.
8r	.	.	.
4r	.	.	.
8r	.	.	.
8~C#	I've	.	.
=19	=19	=19	=19
8c#	_	1r	.
4c#	been	.	.
[8c#	fee	.	.
8c#]	_	.	.
8c#q	_	.	.
4.e	ling	.	.
=20	=20	=20	=20
8d#	sor-	1r	.
4c#	-ry	.	.
[8B	for	.	.
8B]	_	.	.
8Bq	_	.	.
4c#	my-	.	.
[8B	-self	.	.
=21	=21	=21	=21
1B_	_	1r	.
=22	=22	=22	=22
4B]	_	1r	.
4r	.	.	.
8r	.	.	.
8G#q	_	.	.
4A	But,	.	.
8G#	you	.	.
=23	=23	=23	=23
4A	know	1r	.
8A	I	.	.
8F#	was	.	.
4A	on-	.	.
8B	-ly	.	.
[8G#	lone	.	.
=24	=24	=24	=24
8G#]	_	1r	.
4.F#	ly	.	.
4r	.	.	.
4E	like	.	.
=25	=25	=25	=25
8G#q	_	.	.
4A	ev-	1r	.
4G#	-'ry-	.	.
8E	-bo-	.	.
8E	-dy	.	.
8C#	_	.	.
[8E	else	.	.
=26	=26	=26	=26
2.E]	_	1r	.
4r	.	.	.
=27	=27	=27	=27
2r	.	1r	.
8r	.	.	.
8G#	Un-	.	.
4B	-til	.	.
=28	=28	=28	=28
4r	.	1r	.
4B	you	.	.
4B	brought	.	.
4B	your	.	.
=29	=29	=29	=29
4B	Sun-	1r	.
8G#	-day	.	.
[8A	mor	.	.
8A]	_	.	.
8A	ning	.	.
4B	_	.	.
=30	=30	=30	=30
4.B	sun-	1r	.
[8A	-shine	.	.
2A]	_	.	.
=31	=31	=31	=31
1r	.	1r	.
=32	=32	=32	=32
8c#	Here	1r	.
4c#	in-	.	.
[8c#	-to	.	.
8c#]	_	.	.
4c#	my	.	.
8B#q	_	.	.
[8c#	Mon	.	.
=33	=33	=33	=33
4c#]	_	1r	.
4c#	day	.	.
8B#q	_	.	.
4c#	mor-	.	.
8B	-ning	.	.
[8B	rain	.	.
=34	=34	=34	=34
2B]	_	1r	.
2r	.	.	.
=35	=35	=35	=35
1r	.	1r	.
=36	=36	=36	=36
4r	.	1r	.
4B	You	.	.
4B	taught	.	.
4B	me	.	.
=37	=37	=37	=37
4B	hap-	1r	.
8G#	-pi-	.	.
[8A	-ness	.	.
8A]	_	.	.
8A	just	.	.
4B	_	.	.
=38	=38	=38	=38
8Aq	_	.	.
4.B	one	1r	.
[8A	time	.	.
2A]	_	.	.
=39	=39	=39	=39
1r	.	1r	.
=40	=40	=40	=40
4r	.	1r	.
4c#	it	.	.
4c#	keeps	.	.
4c#	on	.	.
=41	=41	=41	=41
8c#	co-	1r	.
4c#	-ming	.	.
8c#	back	.	.
4r	.	.	.
8B	a	.	.
8Bq	_	.	.
[8c#	gain	.	.
=42	=42	=42	=42
1c#]	_	1r	.
=43	=43	=43	=43
2r	.	1r	.
4r	.	.	.
8r	.	.	.
[8G#	These	.	.
=44	=44	=44	=44
8G#]	_	1r	.
4G#	streets	.	.
[8B	were	.	.
8B]	_	.	.
8B	ne-	.	.
8c#	-ver	.	.
[8B	high	.	.
=45	=45	=45	=45
8B]	_	1r	.
4.c#	ways	.	.
4r	.	.	.
8r	.	.	.
8G#	I	.	.
=46	=46	=46	=46
8F#	had	1r	.
4A	not	.	.
[8A	known	.	.
4A]	_	.	.
8G#	the	.	.
8G#q	_	.	.
[8A	sky	.	.
=47	=47	=47	=47
4A]	_	1r	.
8A	a-	.	.
8G#	-bove	.	.
8F#	_	.	.
8r	.	.	.
4F#	these	.	.
=48	=48	=48	=48
4E	days	1r	.
8r	.	.	.
8G#	were	.	.
8G#	ne-	.	.
4G#	-ver	.	.
[8G#	my	.	.
=49	=49	=49	=49
8G#]	_	1r	.
4F#	days	.	.
[8E	for	.	.
8E]	_	.	.
4.C#	I	.	.
=50	=50	=50	=50
4F#	had	1r	.
4F#	not	.	.
4F#	known	.	.
8F#	your	.	.
8Eq	_	.	.
[8F#	love	.	.
=51	=51	=51	=51
4.F#]	_	1r	.
8r	.	.	.
4r	.	.	.
8r	.	.	.
8~BB	It's	.	.
=52	=52	=52	=52
8G#	fun-	1r	.
4B	-ny	.	.
[8B	how	.	.
4B]	_	.	.
8c#	a	.	.
[8B	ci	.	.
=53	=53	=53	=53
8B]	_	1r	.
8c#	ty	.	.
8r	.	.	.
[8B	can	.	.
8B]	_	.	.
4G#	put	.	.
[8F#	on	.	.
=54	=54	=54	=54
8F#]	_	1r	.
4A	a	.	.
[8A	diff	.	.
8A]	_	.	.
4A	'rent	.	.
8G#q	_	.	.
[8A	face	.	.
=55	=55	=55	=55
4.A]	_	1r	.
8r	.	.	.
8r	.	.	.
8~G#	when	.	.
8F#	it	.	.
[8E	holds	.	.
=56	=56	=56	=56
4E]	_	1r	.
8G#	the	.	.
[8G#	one	.	.
8G#]	_	.	.
4G#	you	.	.
[8G#	care	.	.
=57	=57	=57	=57
8G#]	_	1r	.
4.F#	for	.	.
8r	.	.	.
8C#	it	.	.
8~E	be-	.	.
[8F#	-comes	.	.
=58	=58	=58	=58
8F#]	_	1r	.
4F#	a	.	.
[8F#	diff	.	.
8F#]	_	.	.
4F#	'rent	.	.
8E	place	.	.
=59	=59	=59	=59
2F#	_	1r	.
8r	.	.	.
8~c#	And	.	.
8c#	I	.	.
[8c#	ne	.	.
=60	=60	=60	=60
8c#]	_	1r	.
4c#	ver	.	.
[8c#	felt	.	.
8c#]	_	.	.
[4.e	so	.	.
=61	=61	=61	=61
8e]	_	1r	.
[4.d#	far	.	.
8d#]	_	.	.
8c#	from	.	.
8d#	a-	.	.
[8B	-lone	.	.
=62	=62	=62	=62
1B]	_	1r	.
=63	=63	=63	=63
2r	.	1r	.
8r	.	.	.
4.G#	Oh	.	.
=64	=64	=64	=64
4.A	ba-	1r	.
8A	-by	.	.
4r	.	.	.
8r	.	.	.
8~A	you	.	.
=65	=65	=65	=65
4G#	brought	1r	.
4F#	me	.	.
4E	half-	.	.
8Eq	_	.	.
[4F#	-way	.	.
=66	=66	=66	=66
8F#]	_	1r	.
8Eq	_	.	.
[8F#	home	.	.
2.F#_	_	.	.
=67	=67	=67	=67
4F#]	_	1r	.
4r	.	.	.
4r	.	.	.
4G#	Oh,	.	.
=68	=68	=68	=68
4.A	ba-	1r	.
[8A	-by	.	.
4A]	_	.	.
8r	.	.	.
8~A	you	.	.
=69	=69	=69	=69
4G#	brought	1r	.
4F#	me	.	.
4E	half-	.	.
[4E	-way	.	.
=70	=70	=70	=70
8E]	_	1r	.
8C#q	_	.	.
[8E	home	.	.
2.E_	_	.	.
=71	=71	=71	=71
2E]	_	1r	.
2r	.	.	.
=72	=72	=72	=72
4r	.	1r	.
4B	You	.	.
4B	brought	.	.
4B	your	.	.
=73	=73	=73	=73
4B	Sun-	1r	.
8G#	-day	.	.
[8A	mor	.	.
8A]	_	.	.
8A	ning	.	.
4B	_	.	.
=74	=74	=74	=74
4.B	sun-	1r	.
[8A	-shine	.	.
2A]	_	.	.
=75	=75	=75	=75
1r	.	1r	.
=76	=76	=76	=76
4c#	here	1r	.
4c#	in-	.	.
4c#	-to	.	.
4c#	my	.	.
=77	=77	=77	=77
4c#	Mon-	1r	.
8c#	-day	.	.
[8c#	mor	.	.
8c#]	_	.	.
4B	ning	.	.
[8B	rain	.	.
=78	=78	=78	=78
2B]	_	1r	.
2r	.	.	.
=79	=79	=79	=79
1r	.	1r	.
=80	=80	=80	=80
4r	.	1r	.
4B	You	.	.
4B	taught	.	.
4B	me	.	.
=81	=81	=81	=81
4B	hap-	1r	.
8G#	-pi-	.	.
[8A	-ness	.	.
4A]	_	.	.
4B	just	.	.
=82	=82	=82	=82
8Aq	_	.	.
4.B	one	1r	.
[8A	time	.	.
2A]	_	.	.
=83	=83	=83	=83
1r	.	1r	.
=84	=84	=84	=84
4r	.	1r	.
4c#	It	.	.
4c#	keeps	.	.
4c#	on	.	.
=85	=85	=85	=85
8c#	co-	1r	.
4c#	-ming	.	.
8c#	back	.	.
4r	.	.	.
8B	a	.	.
8Bq	_	.	.
[8c#	gain	.	.
=86	=86	=86	=86
2c#]	_	1r	.
8B	and	.	.
4c#	a	.	.
8Bq	_	.	.
[8c#	gain	.	.
=87	=87	=87	=87
4.c#]	_	1r	.
[8B	and	.	.
8B]	_	.	.
4.c#	a!	.	.
=88	=88	=88	=88
4r	.	4r	.
4B	You	4g#	You
4B	brought	4g#	brought
4B	your	4g#	your
=89	=89	=89	=89
4B	Sun-	4g#	Sun-
8G#	-day	8e	-day
[8A	mor	[8f#	mor
8A]	_	8f#]	_
8A	ning	8f#	ning
4B	_	4g#	_
=90	=90	=90	=90
4.B	sun-	4.g#	sun-
[8A	-shine	[8f#	-shine
2A]	_	2f#]	_
=91	=91	=91	=91
1r	.	1r	.
=92	=92	=92	=92
8c#	here	8a	here
4c#	in-	4a	in-
[8c#	-to	[8a	-to
8c#]	_	8a]	_
4.c#	my	4.a	my
=93	=93	=93	=93
4c#	Mon-	4a	Mon-
4c#	-day	4a	-day
8B#q	_	8g#q	_
4c#	mor-	4a	mor-
8B	-ning	8a	-ning
[8B	rain	[8g#	rain
=94	=94	=94	=94
2B]	_	2g#]	_
2r	.	2r	.
=95	=95	=95	=95
1r	.	1r	.
=96	=96	=96	=96
4r	.	4r	.
4B	You	4g#	You
4B	taught	4g#	taught
4B	me	4g#	me
=97	=97	=97	=97
4B	hap-	4g#	hap-
8G#	-pi-	8e	-pi-
[8A	-ness	[8f#	-ness
8A]	_	8f#]	_
8r	.	8r	.
4B	just	4g#	just
=98	=98	=98	=98
8Aq	_	8f#q	_
4.B	one	4.g#	one
[8A	time	[8f#	time
4.A]	_	4.f#]	_
8r	.	8r	.
=99	=99	=99	=99
1r	.	1r	.
=100	=100	=100	=100
4r	.	4r	.
4c#	It	4a	It
4c#	keeps	4a	keeps
4c#	on	4a	on
=101	=101	=101	=101
8c#	co-	8a	co-
4c#	-ming	4a	-ming
8c#	back	8a	back
4r	.	4r	.
8B	a	8a	a
8Bq	_	.	.
[8c#	gain	[8g#	gain
=102	=102	=102	=102
2c#]	_	2g#]	_
8B	and	8g#	and
4c#	a	4g#	a
8Bq	_	.	.
[8c#	gain	[8a	gain
=103	=103	=103	=103
4.c#]	_	4.a]	_
[8B	and	[8a	and
8B]	_	8a]	_
4.c#	a!	4.a	a!
=104	=104	=104	=104
4r	.	4r	.
4B	You	4g#	You
4B	brought	4g#	brought
4B	your	4g#	your
=105	=105	=105	=105
4B	Sun-	4g#	Sun-
8G#	-day	8e	-day
[8A	mor	[8f#	mor
8A]	_	8f#]	_
8A	ning	8f#	ning
4B	_	4g#	_
=106	=106	=106	=106
4.B	sun-	4.g#	sun-
[8A	-shine	[8f#	-shine
2A]	_	2f#]	_
=107	=107	=107	=107
1r	.	1r	.
=108	=108	=108	=108
8c#	here	8a	here
4c#	in-	4a	in-
[8c#	-to	[8a	-to
8c#]	_	8a]	_
4c#	my	4a	my
[8c#	Mon	[8a	Mon
=109	=109	=109	=109
8c#]	_	8a]	_
4c#	day	4a	day
[8c#	mor	[8a	mor
8B#q	_	.	.
4c#]	_	8a]	_
.	.	4g#	_
8B	ning	.	.
[8B	rain	[8g#	rain
=110	=110	=110	=110
2B]	_	2g#]	_
2r	.	2r	.
=111	=111	=111	=111
1r	.	1r	.
=112	=112	=112	=112
4r	.	4r	.
4B	You	4g#	You
4B	taught	4g#	taught
4B	me	4g#	me
=113	=113	=113	=113
4B	hap-	4g#	hap-
8G#	-pi-	8e	-pi-
[8A	-ness	[8f#	-ness
8A]	_	8f#]	_
8r	.	8r	.
4B	just	4g#	just
=114	=114	=114	=114
8Aq	_	8f#q	_
4.B	one	4.g#	one
[8A	time	[8f#	time
4.A]	_	4.f#]	_
8r	.	8r	.
=115	=115	=115	=115
1r	.	1r	.
=116	=116	=116	=116
4r	.	4r	.
4c#	It	4a	It
4c#	keeps	4a	keeps
4c#	on	4a	on
=117	=117	=117	=117
8c#	co-	8a	co-
4c#	-ming	4a	-ming
8c#	back	8a	back
4r	.	4r	.
8B	a	8a	a
8Bq	_	.	.
[8c#	gain	[8g#	gain
=118	=118	=118	=118
2c#]	_	2g#]	_
8B	and	8g#	and
4c#	a	4g#	a
8Bq	_	.	.
[8c#	gain	[8a	gain
=119	=119	=119	=119
4.c#]	_	4.a]	_
[8B	and	[8a	and
8B]	_	8a]	_
4.c#	a!	4.a	a!
r;	.	r;	.
r;	.	r;	.
*-	*-	*-	*-
!!!ENC: Nathaniel Condit-Schultz